v2/perps-v2/ui/public/asset-icons/FTM.svg

<svg width="42" height="42" viewBox="0 0 42 42" fill="none" xmlns="http://www.w3.org/2000/svg">
<g clip-path="url(#clip0_5604_37123)">
<path d="M21 42C32.598 42 42 32.598 42 21C42 9.40202 32.598 0 21 0C9.40202 0 0 9.40202 0 21C0 32.598 9.40202 42 21 42Z" fill="#13B5EC"/>
<path fill-rule="evenodd" clip-rule="evenodd" d="M22.575 16.9312L27.3 14.175V19.6875L22.575 16.9312ZM27.3 28.7437L21 32.4188L14.7 28.7437V22.3125L21 25.9875L27.3 22.3125V28.7437ZM14.7 14.175L19.425 16.9312L14.7 19.6875V14.175ZM21.7875 18.2437L26.5125 21L21.7875 23.7563V18.2437ZM20.2125 23.7563L15.4875 21L20.2125 18.2437V23.7563ZM26.5125 12.8625L21 16.0125L15.4875 12.8625L21 9.58125L26.5125 12.8625ZM13.125 12.3375V29.5312L21 33.9937L28.875 29.5312V12.3375L21 7.875L13.125 12.3375Z" fill="white"/>
</g>
<defs>
<clipPath id="clip0_5604_37123">
<rect width="42" height="42" fill="white"/>
</clipPath>
</defs>
</svg>

<svg width="42" height="42" fill="none" xmlns="http://www.w3.org/2000/svg"><g clip-path="url(#a)"><path d="M21 42c11.598 0 21-9.402 21-21S32.598 0 21 0 0 9.402 0 21s9.402 21 21 21Z" fill="#13B5EC"/><path fill-rule="evenodd" clip-rule="evenodd" d="m22.575 16.931 4.725-2.756v5.512l-4.725-2.756ZM27.3 28.744 21 32.419l-6.3-3.675v-6.431l6.3 3.675 6.3-3.675v6.43ZM14.7 14.175l4.725 2.756-4.725 2.756v-5.512Zm7.088 4.069L26.512 21l-4.724 2.756v-5.512Zm-1.576 5.512L15.488 21l4.724-2.756v5.512Zm6.3-10.893L21 16.012l-5.512-3.15L21 9.58l5.512 3.282Zm-13.387-.525V29.53L21 33.994l7.875-4.463V12.337L21 7.875l-7.875 4.463Z" fill="#fff"/></g><defs><clipPath id="a"><path fill="#fff" d="M0 0h42v42H0z"/></clipPath></defs></svg>
